X:1
T:Clephane, 76.86.86.86
T:Clephane, 76.86.86.86
T:Ira David Sankey (1840-1908), har. H. E. Button
T:Public Domain Courtesy of the Cyber Hymnal™
C:Ira David Sankey (1840-1908), har. H. E. Button
Z:Public Domain
Z:Courtesy of the Cyber Hymnal™
%%score ( 1 2 ) 3
L:1/8
Q:1/4=110
M:4/4
K:Eb
V:1 treble 
V:2 treble 
V:3 bass 
V:1
 [GB]2 | [GB]3 [GB] [^F=A]2 [GB]2 | [Ge]4 [GB]2 [EG]2 | [GB]3 [GB] [FA]2 [DF]2 | [EG]6 [GB]2 | %5
 [GB]3 [GB] [^F=A]2 [GB]2 | [Ge]3 [GB] [GB]2 [EG]2 | [EB]3 [EB] [FA]2 [B,D]2 | [B,E]6 [EG]2 | %9
 [DF]3 [^C=E] [DF]2 [A=c]2 | [GB]3 [EG] [GB]2 [EG]2 | [DF]2 [DB]2 B=A [Fd][Ec] | [DB]6 [DB][FA] | %13
 [EG]2 [EG]2 [FB]2 [FB]2 | [Ge]3 [Ge] [Ac]2 [Bd][Ac] | [EB]3 [EB] [FA]2 [B,D]2 | E6 |] %17
V:2
 x2 | x8 | x8 | x8 | x8 | x8 | x8 | x8 | x8 | x8 | x8 | x4 E2 x2 | x8 | x8 | x8 | x8 | E6 |] %17
V:3
 [E,B,]2 | [E,B,]3 [E,B,] [E,C]2 [E,B,]2 | [E,B,]4 [E,B,]2 [E,B,]2 | %3
 [B,,B,]3 [B,,B,] [B,,B,]2 [B,,B,]2 | [E,B,]6 [E,B,]2 | [E,B,]3 [E,B,] [E,C]2 [E,B,]2 | %6
 [E,B,]3 [E,B,] [E,B,]2 [E,B,]2 | [B,,G,]3 [B,,G,] [B,,B,]2 [B,,A,]2 | [E,G,]6 [G,B,]2 | %9
 [B,,B,]3 [B,,B,] [B,,B,]2 [B,,B,]2 | [E,B,]3 [E,B,] [E,B,]2 [E,B,]2 | %11
 [F,B,]2 [F,B,]2 [F,C]2 [F,C]2 | [B,,B,]6 [B,,B,][B,,B,] | [E,B,]2 [E,B,]2 [D,B,]2 [D,A,]2 | %14
 [C,C]3 [C,C] [A,,A,]2 [A,,A,][A,,A,] | [B,,G,]3 [B,,G,] [B,,B,]2 [B,,A,]2 | [E,G,]6 |] %17

